client/public/images/email.svg

<svg height="10" viewBox="0 0 10 10" width="10" xmlns="http://www.w3.org/2000/svg"><path d="m5 0c-2.10204983 0-3.97969402 1.31456923-4.69866189 3.28984103s-.12571212 4.18930224 1.48457741 5.5404429c1.61028954 1.35114067 3.89370933 1.55083347 5.71408448.49971607.16273919-.08513143.26570625-.25263067.26819195-.43627496.0024857-.1836443-.09591012-.35386906-.25628554-.44337398s-.35691187-.08388075-.51190641.01464894c-1.56779978.90516956-3.5480933.64451548-4.82826828-.63551581s-1.54105134-3.26029554-.63605776-4.82819691c.90499357-1.56790137 2.75021925-2.33252231 4.49895155-1.86426657 1.74873229.46825573 2.96496792 2.05264012 2.96537449 3.86297929v.375c-.00000002.48324914-.39175086.87499996-.875.87499996s-.87499998-.39175082-.875-.87499996v-2.125c0-.27614237-.22385763-.5-.5-.5-.2398464-.00533682-.44967916.16043105-.5.395-.367544-.25421005-.80312034-.39185217-1.25-.395-1.03715369-.01240389-1.94839658.68579957-2.20626406 1.6904617s.20446727 2.05542293 1.11938601 2.54405912c.91491875.4886362 2.04531864.28851684 2.73687805-.48452082.48697802.63064323 1.3200726.88345356 2.07539898.62979918.75532637-.25365438 1.2669693-.95805566 1.27460102-1.75479918v-.375c0-2.76142375-2.23857625-5-5-5zm0 6.25c-.69035594 0-1.25-.55964406-1.25-1.25s.55964406-1.25 1.25-1.25 1.25.55964406 1.25 1.25-.55964406 1.25-1.25 1.25z" fill="#3a55d8"/></svg>

<?xml version="1.0" encoding="UTF-8"?>
<svg width="10px" height="10px" viewBox="0 0 10 10" version="1.1" xmlns="http://www.w3.org/2000/svg" xmlns:xlink="http://www.w3.org/1999/xlink">
    <title>email</title>
    <g id="Page-1" stroke="none" stroke-width="1" fill="none" fill-rule="evenodd">
        <g id="Login-Page-sign" transform="translate(-38.000000, -498.000000)" fill="#3A55D8" fill-rule="nonzero">
            <g id="email" transform="translate(38.000000, 498.000000)">
                <path d="M5,-2.22044605e-16 C2.89795017,-2.22044605e-16 1.02030598,1.31456923 0.301338114,3.28984103 C-0.417629756,5.26511283 0.175625987,7.47914327 1.78591552,8.83028393 C3.39620506,10.1814246 5.67962485,10.3811174 7.5,9.33 C7.66273919,9.24486857 7.76570625,9.07736933 7.76819195,8.89372504 C7.77067765,8.71008074 7.67228183,8.53985598 7.51190641,8.45035106 C7.35153099,8.36084614 7.15499454,8.36647031 7,8.465 C5.43220022,9.37016956 3.4519067,9.10951548 2.17173172,7.82948419 C0.891556744,6.5494529 0.630680379,4.56918865 1.53567396,3.00128728 C2.44066753,1.43338591 4.28589321,0.668764969 6.03462551,1.13702071 C7.7833578,1.60527644 8.99959343,3.18966083 9,5 L9,5.375 C8.99999998,5.85824914 8.60824914,6.24999996 8.125,6.24999996 C7.64175086,6.24999996 7.25000002,5.85824914 7.25,5.375 L7.25,3.25 C7.25,2.97385763 7.02614237,2.75 6.75,2.75 C6.5101536,2.74466318 6.30032084,2.91043105 6.25,3.145 C5.882456,2.89078995 5.44687966,2.75314783 5,2.75 C3.96284631,2.73759611 3.05160342,3.43579957 2.79373594,4.4404617 C2.53586846,5.44512383 2.99820321,6.49588463 3.91312195,6.98452082 C4.8280407,7.47315702 5.95844059,7.27303766 6.65,6.5 C7.13697802,7.13064323 7.9700726,7.38345356 8.72539898,7.12979918 C9.48072535,6.8761448 9.99236828,6.17174352 10,5.375 L10,5 C10,2.23857625 7.76142375,-2.22044605e-16 5,-2.22044605e-16 Z M5,6.25 C4.30964406,6.25 3.75,5.69035594 3.75,5 C3.75,4.30964406 4.30964406,3.75 5,3.75 C5.69035594,3.75 6.25,4.30964406 6.25,5 C6.25,5.69035594 5.69035594,6.25 5,6.25 L5,6.25 Z" id="Shape"></path>
            </g>
        </g>
    </g>
</svg>
